editors/vscode/static/assets/img/slint-logo-dark.svg

<svg fill="none" height="42" viewBox="0 0 141 42" width="141" xmlns="http://www.w3.org/2000/svg" xmlns:xlink="http://www.w3.org/1999/xlink"><clipPath id="a"><path d="m0 0h141v42h-141z"/></clipPath><g clip-path="url(#a)"><path d="m5.48586 41.6226 23.11044-16.118s1.043-.6029 1.043-1.5543c0-1.2671-1.3189-1.6792-1.3189-1.6792l-12.7139-5.0634c-.4537-.1789-1.078.3227-.4934.9585l4.2091 4.2391s1.1692 1.1564 1.1692 1.9147-.7179 1.4342-.7179 1.4342l-15.31654 14.8934c-.54485.5299.19175 1.4908 1.0289.975z" fill="#2379f4"/><path d="m24.1534.760004-23.11047 16.115696s-1.04293.6029-1.04293 1.5543c0 1.267 1.31886 1.6792 1.31886 1.6792l12.71394 5.0657c.4536.1766 1.0803-.325.4934-.9585l-4.2091-4.2532s-1.16925-1.154-1.16925-1.9147.71789-1.4342.71789-1.4342l15.30716-14.88166c.5543-.52988-.18-1.490749-1.0195-.972636z" fill="#2379f4"/><g fill="#fff"><path d="m60.924 25.868c-1.4872-1.1243-3.5713-1.864-6.252-2.219l-4.9411-.6352c-1.3257-.1646-2.3429-.466-3.0516-.9043-.3359-.1915-.613-.4724-.801-.812-.188-.3395-.2797-.7246-.2649-1.113 0-1.9861 1.8728-2.9782 5.6186-2.9763 2.1295-.0298 4.247.3253 6.252 1.0485.6154.2176 1.2077.4963 1.7682.8321.2997.1772.5827.3815.8456.6103.1583-.0711.3057-.1645.4379-.2774.2059-.1611.3909-.3474.5508-.5548.187-.2439.3494-.5059.4848-.7822.1516-.3191.2261-.6699.2175-1.0235 0-1.2039-.9281-2.1803-2.7845-2.9292-1.8563-.7489-4.4645-1.1188-7.8247-1.1095-1.7237-.0353-3.444.17-5.1118.6102-1.2395.3235-2.4012.8962-3.4152 1.6837-.83.6529-1.4914 1.4979-1.9279 2.4632-.4051.9301-.6116 1.9356-.606 2.9513-.0296 1.0706.1951 2.1329.6555 3.0984.4298.8558 1.0512 1.5993 1.815 2.1719.8442.6183 1.7868 1.0874 2.7873 1.3869 1.1599.3581 2.3532.5951 3.5612.7073l3.7788.4411c1.7443.1849 2.9552.5177 3.6328.9985.3318.2291.5995.5403.7775.9036.1779.3634.2602.7667.2388 1.1713 0 1.0743-.5325 1.8307-1.5975 2.2689-1.0649.4383-2.442.6574-4.1313.6574-1.1996.0072-2.3975-.0903-3.5804-.2912-.9913-.1706-1.9702-.4069-2.9305-.7073-.7325-.2307-1.4523-.5001-2.1566-.8072-.4223-.173-.828-.3847-1.2118-.6325l-2.0822 3.7558c.3953.2841.8168.5294 1.2587.7323.8236.3942 1.674.7289 2.5449 1.0013 1.214.3813 2.4514.6825 3.7044.9015 1.5679.2731 3.157.404 4.7482.3911 3.6154 0 6.3852-.7322 8.3095-2.1968.9192-.6643 1.6628-1.5455 2.1655-2.5663s.7493-2.1502.7181-3.2893c.0184-2.182-.7151-3.8352-2.2006-4.9596z"/><path d="m72.164 2.22674c-.9364 0-1.6525.21358-2.1813.6352-.5288.42163-.774 1.07347-.774 1.94168v33.38568h5.5222v-35.42444c-.1625-.0638-.4847-.17198-.9695-.31622-.5187-.15248-1.057-.22725-1.5974-.2219z"/><path d="m84.9243 2.71494c-.4405-.0052-.8776.07834-1.2856.24572-.4081.16739-.7787.41524-1.0902.72897-.3115.31374-.5576.68703-.7238 1.09794s-.2492.85113-.244 1.29479c.0028.55262.1405 1.09605.4012 1.58235.2606.48631.6361.90054 1.0932 1.20615.4572.30562.982.49322 1.5282.54626.5462.05305 1.0969-.0301 1.6037-.24211.5067-.212.9538-.54635 1.3019-.97354s.5865-.93409.6941-1.47598c.1075-.5419.0811-1.10213-.0772-1.63128-.1582-.52915-.4433-1.01094-.8301-1.40288-.3082-.31713-.6776-.56735-1.0854-.73527-.4079-.16792-.8455-.24998-1.286-.24112z"/><path d="m85.1088 13.6993c-.9364 0-1.6525.2052-2.1813.6102s-.7657 1.0541-.7657 1.9694v21.9132h5.5222v-23.9603c-.1625-.0665-.4847-.1719-.9695-.3189-.5222-.149-1.063-.221-1.6057-.2136z"/><path d="m115.149 15.7685c-1.105-.9261-2.381-1.6228-3.754-2.0498-1.536-.4839-3.139-.7226-4.748-.7074-1.602-.0168-3.196.222-4.724.7074-1.365.4308-2.6329 1.1272-3.7317 2.0498-1.0533.8939-1.8993 2.0092-2.4788 3.2676-.6128 1.3732-.9157 2.8662-.8869 4.3715v14.7845h5.5224v-13.3698c0-2.2191.525-3.9028 1.575-5.0512 1.05-1.1483 2.625-1.7253 4.724-1.7308 2.065 0 3.632.5769 4.698 1.7308 1.067 1.1539 1.601 2.8377 1.601 5.0512v13.3698h5.522v-14.7845c.029-1.5025-.264-2.9937-.86-4.3715-.566-1.2611-1.406-2.3778-2.459-3.2676z"/><path d="m138.766 32.675c-.542.3524-1.129.6322-1.743.8321-.84.2978-1.724.4471-2.614.4411-.563.0025-1.124-.0627-1.672-.1942-.512-.1207-.992-.3537-1.404-.6824-.418-.3449-.743-.7904-.945-1.2953-.248-.6614-.363-1.3656-.339-2.0721v-10.8872h9.301c.148-.3252.278-.6586.389-.9986.164-.4962.246-1.0164.242-1.5395 0-.8321-.218-1.4868-.656-1.925-.437-.4383-1.189-.6546-2.255-.6546h-7.024v-6.37983c-.162-.06657-.493-.17198-.994-.31899-.528-.14889-1.074-.22265-1.622-.21913-.758-.04305-1.509.17187-2.132.61024-.529.39111-.776 1.03741-.776 1.96109v21.46662c0 2.404.727 4.3456 2.181 5.825s3.602 2.2191 6.445 2.2191c.925.0032 1.848-.0897 2.754-.2774.775-.1612 1.536-.3809 2.278-.6574.597-.223 1.172-.5016 1.718-.8321.469-.2941.836-.5382 1.102-.7323z"/></g></g></svg>

<svg width="141" height="42" viewBox="0 0 141 42" fill="none" xmlns="http://www.w3.org/2000/svg">
<g clip-path="url(#clip0_1_151)">
<path d="M5.48586 41.6226L28.5963 25.5046C28.5963 25.5046 29.6393 24.9017 29.6393 23.9503C29.6393 22.6832 28.3204 22.2711 28.3204 22.2711L15.6065 17.2077C15.1528 17.0288 14.5285 17.5304 15.1131 18.1662L19.3222 22.4053C19.3222 22.4053 20.4914 23.5617 20.4914 24.32C20.4914 25.0783 19.7735 25.7542 19.7735 25.7542L4.45696 40.6476C3.91211 41.1775 4.64871 42.1384 5.48586 41.6226Z" fill="#2379F4"/>
<path d="M24.1534 0.760004L1.04293 16.8757C1.04293 16.8757 0 17.4786 0 18.43C0 19.697 1.31886 20.1092 1.31886 20.1092L14.0328 25.1749C14.4864 25.3515 15.1131 24.8499 14.5262 24.2164L10.3171 19.9632C10.3171 19.9632 9.14785 18.8092 9.14785 18.0485C9.14785 17.2878 9.86574 16.6143 9.86574 16.6143L25.1729 1.73264C25.7272 1.20276 24.9929 0.241891 24.1534 0.760004Z" fill="#2379F4"/>
<path d="M60.924 25.868C59.4368 24.7437 57.3527 24.004 54.672 23.649L49.7309 23.0138C48.4052 22.8492 47.388 22.5478 46.6793 22.1095C46.3434 21.918 46.0663 21.6371 45.8783 21.2975C45.6903 20.958 45.5986 20.5729 45.6134 20.1845C45.6134 18.1984 47.4862 17.2063 51.232 17.2082C53.3615 17.1784 55.479 17.5335 57.484 18.2567C58.0994 18.4743 58.6917 18.753 59.2522 19.0888C59.5519 19.266 59.8349 19.4703 60.0978 19.6991C60.2561 19.628 60.4035 19.5346 60.5357 19.4217C60.7416 19.2606 60.9266 19.0743 61.0865 18.8669C61.2735 18.623 61.4359 18.361 61.5713 18.0847C61.7229 17.7656 61.7974 17.4148 61.7888 17.0612C61.7888 15.8573 60.8607 14.8809 59.0043 14.132C57.148 13.3831 54.5398 13.0132 51.1796 13.0225C49.4559 12.9872 47.7356 13.1925 46.0678 13.6327C44.8283 13.9562 43.6666 14.5289 42.6526 15.3164C41.8226 15.9693 41.1612 16.8143 40.7247 17.7796C40.3196 18.7097 40.1131 19.7152 40.1187 20.7309C40.0891 21.8015 40.3138 22.8638 40.7742 23.8293C41.204 24.6851 41.8254 25.4286 42.5892 26.0012C43.4334 26.6195 44.376 27.0886 45.3765 27.3881C46.5364 27.7462 47.7297 27.9832 48.9377 28.0954L52.7165 28.5365C54.4608 28.7214 55.6717 29.0542 56.3493 29.535C56.6811 29.7641 56.9488 30.0753 57.1268 30.4386C57.3047 30.802 57.387 31.2053 57.3656 31.6099C57.3656 32.6842 56.8331 33.4406 55.7681 33.8788C54.7032 34.3171 53.3261 34.5362 51.6368 34.5362C50.4372 34.5434 49.2393 34.4459 48.0564 34.245C47.0651 34.0744 46.0862 33.8381 45.1259 33.5377C44.3934 33.307 43.6736 33.0376 42.9693 32.7305C42.547 32.5575 42.1413 32.3458 41.7575 32.098L39.6753 35.8538C40.0706 36.1379 40.4921 36.3832 40.934 36.5861C41.7576 36.9803 42.608 37.315 43.4789 37.5874C44.6929 37.9687 45.9303 38.2699 47.1833 38.4889C48.7512 38.762 50.3403 38.8929 51.9315 38.88C55.5469 38.88 58.3167 38.1478 60.241 36.6832C61.1602 36.0189 61.9038 35.1377 62.4065 34.1169C62.9092 33.0961 63.1558 31.9667 63.1246 30.8276C63.143 28.6456 62.4095 26.9924 60.924 25.868Z" fill="white"/>
<path d="M72.164 2.22674C71.2276 2.22674 70.5115 2.44032 69.9827 2.86194C69.4539 3.28357 69.2087 3.93541 69.2087 4.80362V38.1893H74.7309V2.76486C74.5684 2.70106 74.2462 2.59288 73.7614 2.44864C73.2427 2.29616 72.7044 2.22139 72.164 2.22674Z" fill="white"/>
<path d="M84.9243 2.71494C84.4838 2.70974 84.0467 2.79328 83.6387 2.96066C83.2306 3.12805 82.86 3.3759 82.5485 3.68963C82.237 4.00337 81.9909 4.37666 81.8247 4.78757C81.6585 5.19848 81.5755 5.6387 81.5807 6.08236C81.5835 6.63498 81.7212 7.17841 81.9819 7.66471C82.2425 8.15102 82.618 8.56525 83.0751 8.87086C83.5323 9.17648 84.0571 9.36408 84.6033 9.41712C85.1495 9.47017 85.7002 9.38702 86.207 9.17501C86.7137 8.96301 87.1608 8.62866 87.5089 8.20147C87.857 7.77428 88.0954 7.26738 88.203 6.72549C88.3105 6.18359 88.2841 5.62336 88.1258 5.09421C87.9676 4.56506 87.6825 4.08327 87.2957 3.69133C86.9875 3.3742 86.6181 3.12398 86.2103 2.95606C85.8024 2.78814 85.3648 2.70608 84.9243 2.71494V2.71494Z" fill="white"/>
<path d="M85.1088 13.6993C84.1724 13.6993 83.4563 13.9045 82.9275 14.3095C82.3987 14.7145 82.1618 15.3636 82.1618 16.2789V38.1921H87.684V14.2318C87.5215 14.1653 87.1993 14.0599 86.7145 13.9129C86.1923 13.7639 85.6515 13.6919 85.1088 13.6993Z" fill="white"/>
<path d="M115.149 15.7685C114.044 14.8424 112.768 14.1457 111.395 13.7187C109.859 13.2348 108.256 12.9961 106.647 13.0113C105.045 12.9945 103.451 13.2333 101.923 13.7187C100.558 14.1495 99.2901 14.8459 98.1913 15.7685C97.138 16.6624 96.292 17.7777 95.7125 19.0361C95.0997 20.4093 94.7968 21.9023 94.8256 23.4076V38.1921H100.348V24.8223C100.348 22.6032 100.873 20.9195 101.923 19.7711C102.973 18.6228 104.548 18.0458 106.647 18.0403C108.712 18.0403 110.279 18.6172 111.345 19.7711C112.412 20.925 112.946 22.6088 112.946 24.8223V38.1921H118.468V23.4076C118.497 21.9051 118.204 20.4139 117.608 19.0361C117.042 17.775 116.202 16.6583 115.149 15.7685V15.7685Z" fill="white"/>
<path d="M138.766 32.675C138.224 33.0274 137.637 33.3072 137.023 33.5071C136.183 33.8049 135.299 33.9542 134.409 33.9482C133.846 33.9507 133.285 33.8855 132.737 33.754C132.225 33.6333 131.745 33.4003 131.333 33.0716C130.915 32.7267 130.59 32.2812 130.388 31.7763C130.14 31.1149 130.025 30.4107 130.049 29.7042V18.817H139.35C139.498 18.4918 139.628 18.1584 139.739 17.8184C139.903 17.3222 139.985 16.802 139.981 16.2789C139.981 15.4468 139.763 14.7921 139.325 14.3539C138.888 13.9156 138.136 13.6993 137.07 13.6993H130.046V7.31947C129.884 7.2529 129.553 7.14749 129.052 7.00048C128.524 6.85159 127.978 6.77783 127.43 6.78135C126.672 6.7383 125.921 6.95322 125.298 7.39159C124.769 7.7827 124.522 8.429 124.522 9.35268V30.8193C124.522 33.2233 125.249 35.1649 126.703 36.6443C128.157 38.1237 130.305 38.8634 133.148 38.8634C134.073 38.8666 134.996 38.7737 135.902 38.586C136.677 38.4248 137.438 38.2051 138.18 37.9286C138.777 37.7056 139.352 37.427 139.898 37.0965C140.367 36.8024 140.734 36.5583 141 36.3642L138.766 32.675Z" fill="white"/>
</g>
<defs>
<clipPath id="clip0_1_151">
<rect width="141" height="42" fill="white"/>
</clipPath>
</defs>
</svg>
